s0.initCam()

src(s0)
.modulateRotate(osc(3,0.2,0.7)).kaleid(21)
.out(o1)

src(o1).mult(osc(4,1,1),0.1).modulateRotate(o1,1).mult(osc(4,0,1))
.scale(1,1,()=>(window.innerWidth)/window.innerHeight)
  .out(o0)

