osc(130, 0, 1)
.color(0.9, 0.2, 0.4)
.modulate(osc(5, -0.1).rotate(9))
.add(osc(10, 0, 900).scale(()=>1,()=>1*a.fft[0],1).color(1,0,1))
.mult(shape(900, 0.1,1).luma(0.25).repeatX(2).repeatY(1).colorama(10))
.scale(1,1,()=>(window.innerWidth/2)/window.innerHeight)
.out()

