gradient(0.2)
.color(0.4,0.7,0.2)
.add(voronoi(), ()=>Math.cos(time)/2)
.modulateRotate(src(o0).rotate(0, -0.1), 0.9).mult(shape(7), 0.8).mult(shape(3), 0.4)
.diff(src(o0).rotate(0, -0.1), 0.2)
.out()
