s0.initCam()


//shape(30,0.3,1).invert(({time})=>Math.sin(time)*3).out(o2)//////////////////////////
noise(33,1,1).rotate(3,0,0).modulateScale(o2,0.3).color(1,3,2).brightness(3).out(o0)
voronoi(10,0.3,3).thresh(0.5,0.03).diff(src(s0),0.3).out(o1)
osc(20,()=>-0.1-a.fft[0]/2000,0.3).kaleid(7).diff(o0).blend(o1).scale(1,1,()=>(window.innerWidth)/window.innerHeight).out(o3)

render(o3)
