s0.initCam()
src(o0)
  .modulate(
    osc(6,0,1.5).modulate(noise(()=>3+a.fft[0]*10).sub(gradient()),1)
    .brightness(-0.5)
  ,0.003)
  .layer(
  src(s0).color(0.2,0.7,0.1).mask(shape(3,0.3,0).rotate(1,0.5))
  )
  .out(o0)
