s0.initCam()

src(s0)
  .mask(osc(4))
  .color(0.4,0.6,0.7)
  .modulateKaleid(shape(3).add(osc(4,0.2,1)).modulate(noise(10)).scale(3),2)
  .scale(() => 1.5+ Math.sin(time/4))
  .rotate(0.2, 0.1)
.out(o0)

